X:817
T:Sidlaw Hills
C:Jim Watson
S:From the playing of Tam Hughes
Z:Nigel Gatherer
M:4/4
L:1/8
K:A
(3efg | a>ba>f e<cB>A | A<cB>A F2 
(3EFG | A2 A2  f<ae>d | c2 A2  B3
(3efg | a>ba>f e<cB>A | A<cB>A F2 
(3EFG | A2 A2  f<ae>c | B2 A2  A2 :|
c>e   | f>ec<e a>ec<e | f>ec<e f2 
e>f   | a>ec<e f>ec<e | f<ae>c B2 A2 |
        a>ba>f e<cB>A | A<cB>A F2 
(3EFG | A<A A2 f<ae>c | B2 A2  A2 :|
<end>
<start>
